X: 4246
T: The LADS WI' THE KILTS
%R: jig
B: James Kerr "Merry Melodies" v.4 p.27 #246
Z: 2016 John Chambers <jc:trillian.mit.edu>
M: 6/8
L: 1/8
K: D
e |\
dBA AAB | def dBA | BdA B2g | ada gfe |\
dBA AAB | dfe dBA | dBA B2g | ada gfe :|
|:\
def gfg | agf fef | def gfg | agf f2e |\
def gfg | agf fef | dBA A2g | ada gfe :|

%%sep 1 1 500
%%sep 1 1 500

